**kern
*clefF4
*k[b-e-a-d-g-c-]
*M3/4
=1-
8BB
8C
8BB
16r
4C
=2
4C
2C
=3
2C
8r
16BB
(16BB
=4
16AA)
16r
(4BB
8C)
16C
16BB
=5
16AA#
8AA
2BB
16AA
=6
16r
2BB
8C#
(16D
=7
8D)
2D
(8E
=8
2F)
16G
16A
16B
16c
=9
16B
8.c
4r
16c
16r
(16B
16A)
=10
16B
8c
2d#
16c
=11
*-